modules/feather/icons/upload.svg

<?xml version="1.0" encoding="UTF-8"?>
<svg width="24px" height="24px" viewBox="0 0 24 24" version="1.1" xmlns="http://www.w3.org/2000/svg" xmlns:xlink="http://www.w3.org/1999/xlink">
    <g id="upload" fill-rule="evenodd">
        <path d="M13,5.41421356 L13,15 C13,15.5522847 12.5522847,16 12,16 C11.4477153,16 11,15.5522847 11,15 L11,5.41421356 L7.70710678,8.70710678 C7.31658249,9.09763107 6.68341751,9.09763107 6.29289322,8.70710678 C5.90236893,8.31658249 5.90236893,7.68341751 6.29289322,7.29289322 L11.2928932,2.29289322 C11.6834175,1.90236893 12.3165825,1.90236893 12.7071068,2.29289322 L17.7071068,7.29289322 C18.0976311,7.68341751 18.0976311,8.31658249 17.7071068,8.70710678 C17.3165825,9.09763107 16.6834175,9.09763107 16.2928932,8.70710678 L13,5.41421356 Z M20,15 C20,14.4477153 20.4477153,14 21,14 C21.5522847,14 22,14.4477153 22,15 L22,19 C22,20.6568542 20.6568542,22 19,22 L5,22 C3.34314575,22 2,20.6568542 2,19 L2,15 C2,14.4477153 2.44771525,14 3,14 C3.55228475,14 4,14.4477153 4,15 L4,19 C4,19.5522847 4.44771525,20 5,20 L19,20 C19.5522847,20 20,19.5522847 20,19 L20,15 Z" id="Combined-Shape" fill="#000000" fill-rule="nonzero"></path>
    </g>
</svg>

<svg width="24" height="24" viewBox="0 0 24 24" xmlns="http://www.w3.org/2000/svg"><path d="M13 5.414V15a1 1 0 0 1-2 0V5.414L7.707 8.707a1 1 0 0 1-1.414-1.414l5-5a1 1 0 0 1 1.414 0l5 5a1 1 0 1 1-1.414 1.414L13 5.414zM20 15a1 1 0 0 1 2 0v4a3 3 0 0 1-3 3H5a3 3 0 0 1-3-3v-4a1 1 0 0 1 2 0v4a1 1 0 0 0 1 1h14a1 1 0 0 0 1-1v-4z" fill-rule="nonzero"/></svg>
